X:1
T:Ring, Ye Bells!
T:Ring, Ye Bells!
T:Elijah Albright Hoffman
T:S. Minerva Boyce, 1890
T:Public Domain Courtesy of the Cyber Hymnal™
T:Public Domain Courtesy of the Cyber Hymnal™
C:Elijah Albright Hoffman
Z:Public Domain
Z:Courtesy of the Cyber Hymnal™
%%score ( 1 2 ) ( 3 4 )
L:1/8
Q:1/4=105
M:4/4
K:G
V:1 treble 
V:2 treble 
V:3 bass 
V:4 bass 
V:1
 D2 | B2 B2 [DB]2 [B,D]2 | B2 B2 [DB]2 [Ec]2 | [DA]2 [DA]2 [DA]2 [DF]2 | %4
w: 1.~All|hail the glor- ious|Christ- mas morn, The|day on which our|
w: 2.~Ring|out from stee- ple,|tower and dome, Ring|ev- ery wea- ry|
w: 3.~Ring|on, ye bells, ring|loud and long, Ring|in the good, ring|
 [DG]2 [FA]2 !fermata![GB]2 D2 | B2 B2 [DB]2 [B,D]2 x8 | B2 B2 [DB]2 [=FB]2 | %7
w: Christ was born; Ring|out, ye bells, the|glad- some strains, From|
w: wan- derer home; Send|for the song from|hill to hill, On|
w: out the wrong; Ring|joy and peace and|Christ- mas cheer, To|
 [=Fd]2 [Ec]2 [DA]2 [C^F]2 | [CE]2 [CD]2 [B,G]4 ||"^Refrain" .[DG]2 .D2 .[DG]2 z2 | %10
w: north- ern heights to|south- ern plains.|Ring, ye bells,|
w: earth glad tid- ings|and good will.||
w: ev- ery heart through-|out the year.||
 .[GB]2 .G2 .[GB]2 z2 | .[Gd]2 .[GB]2 .[Gd]2 [Gd]2 | [GB]2 [FA]2 [FA]4 | .[DG]2 D2 [DG]2 z2 | %14
w: ring ye bells!|Ring with glad and|joy- ful chime!|Ring, ye bells,|
w: ||||
w: ||||
 .[GB]2 G2 .[GB]2 z2 | .[Gd]2 .[GB]2 .[Gd]2 [Gd]2 | !fermata![GA]2 !fermata![Fd]2 !fermata!G2 |] %17
w: ring ye bells!|’Tis the hap- py|Christ- mas time!|
w: |||
w: |||
V:2
 D2 | (DG) (FE) x4 | (DG) (FE) x4 | x8 | x6 D2 | (DG) (FE) x12 | (DG) (=FE) x4 | x8 | x8 || %9
 x2 D2 x4 | x2 G2 x4 | x8 | x8 | x2 .D2 x4 | x2 .G2 x4 | x8 | x4 G2 |] %17
V:3
 D,2 | G,2 G,2 G,2 G,2 | G,2 G,2 G,2 [C,G,]2 | (F,G,) (A,B,) [D,C]2 [D,A,]2 | %4
w: ~|~ ~ ~ ~|~ ~ ~ ~|~ * ~ * ~ ~|
 [G,B,]2 [D,D]2 !fermata![G,D]2 D,2 | G,2 G,2 G,2 G,2 G,2 G,2 G,2 G,2 | %6
w: ~ ~ ~ ~|~ ~ ~ ~ ~ ~ ~ ~|
 [C,G,]2 [C,G,]2 [D,F,]2 [D,A,]2 | [D,G,]2 [D,F,]2 [G,,G,]4 | %8
w: ~ ~ ~ ~|~ ~ ~|
 .[G,B,]2 .[G,B,]2 .[G,B,][D,D][B,,B,][G,,G,] || .[G,D]2 .[G,D]2 .[G,D][D,D][B,,B,][G,,G,] | %10
w: Ring, ring bells of Christ- mas!|Ring, ring, bells of Chris- mas!|
 .[G,B,]2 .[G,D]2 .[G,B,]2 [B,,D]2 | [D,D]2 [D,D]2 [D,D]4 | %12
w: ~ ~ ~ ~|~ ~ ~|
 .[G,B,]2 .[G,B,]2 .[G,B,][D,D][B,,B,][G,,G,] | .[G,D]2 .[G,D]2 .[G,D][D,D][B,,B,][G,,G,] | %14
w: Ring, ring bells of Christ- mas!|Ring, ring, bells of Chris- mas!|
 .[G,B,]2 .[G,D]2 .[G,B,]2 [B,,D]2 | !fermata![C,E]2 !fermata![D,C]2 !fermata![G,,B,]2 x2 | x6 |] %17
w: |||
V:4
 D,2 | G,2 G,2 G,2 G,2 | G,2 G,2 G,2 x2 | D,2 D,2 x4 | x6 D,2 | G,2 G,2 G,2 G,2 G,2 G,2 G,2 G,2 | %6
 x8 | x8 | x8 || x8 | x8 | x8 | x8 | x8 | x8 | x8 | x6 |] %17

